X:1
T:The Bells of Conscience
T:The Bells of Conscience
T:James M. Dungan 
T:James M. Dungan, 1889
T:Public Domain Courtesy of the Cyber Hymnal™
T:Public Domain Courtesy of the Cyber Hymnal™
C:James M. Dungan
Z:Public Domain
Z:Courtesy of the Cyber Hymnal™
%%score ( 1 2 ) ( 3 4 )
L:1/8
Q:1/4=87
M:6/8
K:G
V:1 treble 
V:2 treble 
V:3 bass 
V:4 bass 
V:1
 [B,D] | [DB]3- [DB][^C^A][DB] | [B,G] [B,D]4 D | B3- B^AB | d c4 c | c3- cBA | d G4 G | %7
w: 1.~The|con- * science of|child- hood is|speak- * ing in|whis- pers, Oh|come * to the|Sav- ior and|
w: 2.~The|con- * science of|young men and|maid- * ens is|call- ing, In|ear- * nest ap-|peals for the|
w: 3.~The|con- * science of|man- hood is|loud- * ly ap-|peal- ing, And|say- * ing, “Oh,|come in the|
w: 4.~The|con- * science of|old age is|hea- * vi- ly|la- den With|sins * which thro’|life have been|
 [^CEG-]3 [EG][FA][GB] | A3- !fermata![=CA]2 [CD] | [DB]3- [DB][^C^A][DB] | [DG] [B,D]4 [B,D] | %11
w: give Him your life;|“Of such is|* * the king-|dom of Hea-|
w: strength of your will;|The work of|* * your Mas-|ter, it needs|
w: noon- tide of day”;|The sands of|* * the hour-|glass are slow-|
w: hea- vy to bear;|But Je- sus|* * is a-|ble to roll|
 B3- Bcd | [EGd] [EGc]4 c | G3- GA^A | [DB] [B,D]4 [Ec] | [DB] [CD]4 [CA] | [B,G]4 z2 || %17
w: ven,” * says Je-|sus, So then|seek * Him ear-|ly, and en-|ter the strife.||
w: all * your ef-|forts, To bear|all * life’s bur-|dens, and Christ’s|law ful- fill.|The|
w: ly * re- ced-|ing, So start|for * the king-|dom, and do|not de- lay.||
w: off * thy bur-|den, To cleanse|you * from e-|vil and lift|ev- ery care.||
"^Refrain" D | [DB]>[DB][DB] [CA][B,G][DB] | [CE] [B,D]4 G | (z2 A2) D x2 | (z2 [Dd]2) D x | %22
w: |||||
w: bells|of your con- science are ring-|ing, The bells,|* the|* bells;|
w: |||||
w: |||||
 [DB]>[DB][DB] [CA][B,G][DB] | [CE] [B,D]2 [DG]2 [CE] | [B,D] [DG]2 !fermata![DA]2 [DG] | [DG]4 |] %26
w: ||||
w: * The bells of your con-|science are ring- ing,|Say- ing, “Sin- ner,|oh,|
w: ||||
w: ||||
V:2
 x | x6 | x6 | [E^G]6 | [EA]6 | [DF]6 | [DG]6 | x6 | D2 ^C x3 | x6 | x6 | [CG]6 | x6 | _E6 | x6 | %15
 x6 | x6 || D | x6 | x6 | (A3- D D3) | d3 D x2 | x6 | x6 | x6 | x4 |] %26
V:3
 z | (G,,B,,D, G,)D,B,, | G,, (B,,D,G,D,)B,, | (E,,^G,,B,, E,)B,,G,, | A,, (C,E,A,E,)C, | %5
 (D,F,A, F,)D,C, | B,, (D,G,B,G,)D, | (A,,^C,E, A,)E,C, | (D,F,E,D,C,)A,, | (G,,B,,D, G,)D,B,, | %10
 G,, (B,,D,G,D,)B,, | (=F,,G,,B,, D,)B,,G,, | E,, (G,,C,E,C,)G,, | (_E,,G,,C, _E,)C,G,, | %14
 D,, (G,,B,,D,B,,)G,, | D,, (F,,A,,D,A,,)F,, | (G,,D,B,, G,,3) || D, | %18
 [G,,G,]>[G,,G,][G,,G,] [G,,G,][G,,G,][G,,G,] | [G,,G,] [G,,G,]4 z | z2 [D,C] [D,C]3 x | %21
 z2 [G,,B,] [G,,B,]2 D, | [G,,G,]>[G,,G,][G,,G,] [G,,G,][G,,G,][G,,G,] | %23
 [G,,G,] [G,,G,]2 [B,,G,]2 [C,G,] | [D,G,] [D,B,]2 !fermata![D,C]2 [G,,B,] | [G,,B,]4 |] %26
V:4
 x | x6 | x6 | x6 | x6 | x6 | x6 | x6 | x6 | x6 | x6 | x6 | x6 | x6 | x6 | x6 | x6 || D, | x6 | %19
 x6 | x7 | x5 D, | x6 | x6 | x6 | x4 |] %26

